img/envelope.svg

<?xml version="1.0"?>
<svg xmlns="http://www.w3.org/2000/svg" id="Capa_1" enable-background="new 0 0 479.058 479.058" height="512px" viewBox="0 0 479.058 479.058" width="512px" class=""><g><path d="m434.146 59.882h-389.234c-24.766 0-44.912 20.146-44.912 44.912v269.47c0 24.766 20.146 44.912 44.912 44.912h389.234c24.766 0 44.912-20.146 44.912-44.912v-269.47c0-24.766-20.146-44.912-44.912-44.912zm0 29.941c2.034 0 3.969.422 5.738 1.159l-200.355 173.649-200.356-173.649c1.769-.736 3.704-1.159 5.738-1.159zm0 299.411h-389.234c-8.26 0-14.971-6.71-14.971-14.971v-251.648l199.778 173.141c2.822 2.441 6.316 3.655 9.81 3.655s6.988-1.213 9.81-3.655l199.778-173.141v251.649c-.001 8.26-6.711 14.97-14.971 14.97z" data-original="#000000" class="active-path" data-old_color="#000000" fill="#DE3C4B"/></g> </svg>

<svg xmlns="http://www.w3.org/2000/svg" width="479.058" height="359.294" viewBox="0 0 479.058 359.294"><g transform="translate(0 -59.882)"><path d="M434.146,59.882H44.912A44.961,44.961,0,0,0,0,104.794v269.47a44.961,44.961,0,0,0,44.912,44.912H434.146a44.961,44.961,0,0,0,44.912-44.912V104.794a44.961,44.961,0,0,0-44.912-44.912Zm0,29.941a14.884,14.884,0,0,1,5.738,1.159L239.529,264.631,39.173,90.982a14.9,14.9,0,0,1,5.738-1.159Zm0,299.411H44.912a14.981,14.981,0,0,1-14.971-14.971V122.615L229.719,295.756a14.992,14.992,0,0,0,19.62,0L449.117,122.615V374.264A14.981,14.981,0,0,1,434.146,389.234Z" fill="#2bc48a"/></g></svg>
